X: 3812
T: Black Cat, The
R: jig
M: 6/8
K: Dminor
c|:"Dm"d2D DEF|"Am"A>BA E2F|"Gm"~G3 GFE|"Dm"A,DF A>GF|
"Dm"d2D DEF|"Am"A>BA E2F|"Gm"~G3 G>FE|G>FE "Dm"D2c:|
|:"Dm"d2e f>gf|"A7"eAG A>ef|"Gm"~g3 gfe|g>ba "Em"gfe|
"Dm"d2e ~f3|"A"eag a3|Adf Adf|g>fe "Dm"d2c:|

